X:1
T: Farewell to Bute
C:
R:Strathspey
Q: 128
K:Em
M:4/4
L:1/16
|:B3A G3F E4 E3G|B4 B3A Be3 e3d|B3A G3F E3F G3A|Be3 g3_f e6B2|
B3A G3F E4 E3G|B4 B3A Be3 e3d|B3A G3F E3F G3A|Be3 g3_f e6B2|
d3e g3a b3a g3b|d3e d3c Bd3 d3e|d3e g3a b3a g3b|Be3 g3f e6B2|
d3e g3a b3a g3b|d3e d3c Bd3 d3e|d3e g3a b3a g3b|Be3 g3f e8:|
